src/svgs/month.svg

<svg xmlns="http://www.w3.org/2000/svg" viewBox="0 0 24 24" width="512" height="512" aria-labelledby="hymonth-desc hymonth-title"><title id="hymonth-title">Month Icon</title><desc id="hymonth-desc">A picture depicting a month calendar.</desc><path d="M20 2H4a2 2 0 00-2 2v16a2 2 0 002 2h16a2 2 0 002-2V4a2 2 0 00-2-2zm0 18H4V4h16zM11 9H9V7h2zm4 0h-2V7h2zm-8 4H5v-2h2zm4 0H9v-2h2zm4 0h-2v-2h2zm4 0h-2v-2h2zM7 17H5v-2h2zm4 0H9v-2h2zm4 0h-2v-2h2zm4-8h-2V7h2z"/></svg>

<svg xmlns="http://www.w3.org/2000/svg" viewBox="0 0 24 24"><path d="M20,2H4A2,2,0,0,0,2,4V20a2,2,0,0,0,2,2H20a2,2,0,0,0,2-2V4A2,2,0,0,0,20,2Zm0,18H4V4H20ZM11,9H9V7h2Zm4,0H13V7h2ZM7,13H5V11H7Zm4,0H9V11h2Zm4,0H13V11h2Zm4,0H17V11h2ZM7,17H5V15H7Zm4,0H9V15h2Zm4,0H13V15h2Zm4-8H17V7h2Z"/></svg>
